theme/essential/pix_core/t/switch_whole.svg

<!DOCTYPE svg PUBLIC "-//W3C//DTD SVG 1.1//EN" "http://www.w3.org/Graphics/SVG/1.1/DTD/svg11.dtd" [
	<!ENTITY ns_flows "http://ns.adobe.com/Flows/1.0/">
]><svg xmlns="http://www.w3.org/2000/svg" width="12" height="12" viewBox="0 0 12 12" preserveAspectRatio="xMinYMid meet" overflow="visible"><path d="M11 0h-10c-.5 0-1 .5-1 1v10c0 .5.5 1 1 1h10c.5 0 1-.5 1-1v-10c0-.5-.5-1-1-1zm0 10c0 .5-.5 1-1 1h-8c-.5 0-1-.5-1-1v-6c0-.5.5-1 1-1h8c.5 0 1 .5 1 1v6zm-1.2-5.8c.1.1.2.2.2.3v3.5c0 .3-.2.5-.5.5h-1c-.3.1-.5-.2-.5-.4v-2.1h-2.1c-.3 0-.5-.2-.5-.5v-1c0-.2.2-.5.5-.5h3.6c.1 0 .2.1.3.2zm-3.2 4.3v1c0 .3-.2.5-.5.5h-2.6s-1 0-1 0c-.3 0-.5-.3-.5-.5v-3.5c0-.3.2-.5.5-.5h1c.3-.1.5.2.5.4v2.1h2.1c.3 0 .5.2.5.5z" fill="#999"/></svg>

<!DOCTYPE svg PUBLIC "-//W3C//DTD SVG 1.1//EN" "http://www.w3.org/Graphics/SVG/1.1/DTD/svg11.dtd" [
	<!ENTITY ns_flows "http://ns.adobe.com/Flows/1.0/">
]><svg xmlns="http://www.w3.org/2000/svg" width="12" height="12" viewBox="0 0 12 12" preserveAspectRatio="xMinYMid meet" overflow="visible"><path d="M11 0H1C.5 0 0 .5 0 1v10c0 .5.5 1 1 1h10c.5 0 1-.5 1-1V1c0-.5-.5-1-1-1zm0 10c0 .5-.5 1-1 1H2c-.5 0-1-.5-1-1V4c0-.5.5-1 1-1h8c.5 0 1 .5 1 1v6zM9.8 4.2c.1.1.2.2.2.3V8c0 .3-.2.5-.5.5h-1c-.3.1-.5-.2-.5-.4V6H5.9c-.3 0-.5-.2-.5-.5v-1c0-.2.2-.5.5-.5h3.6c.1 0 .2.1.3.2zM6.6 8.5v1c0 .3-.2.5-.5.5H3.5s-1 0-1 0c-.3 0-.5-.3-.5-.5V6c0-.3.2-.5.5-.5h1c.3-.1.5.2.5.4V8h2.1c.3 0 .5.2.5.5z" fill="#999"/></svg>
